X: 1075
T: Hiç Söz Olmaz
C: Ahmet Avni Konuk
O: Turkey
F: http://compmusic.upf.edu/node/140
N: rahatulervah--kupe--agirevfer--hic--ahmet_avni_konuk
N: makam= rahatulervah
N: form= kupe
N: usul= agirevfer = 9/4
M: 9/4
L: 1/16
K: C _7/8B ^c ^f 
Q: 1/4=72
%%MIDI tuningsystem comma53
z4 d8 d2^3/4c2 B3A B2c2 d2dc d4 z4  | \
w:  Hiç  söz  *  ol *  *  *  maz   | 
z4 ^3/4c2d2 e4 =f4 e2d4f2 edc=B c4 z4  | 
w:  hâ *  *  sı lı  *  *  muh  | 
z4 ^3/4c2B2 c4 e2=f2 e2d2 c2B2 c2{d}cB A4 z4  | \
w:  rık  *  *  sa *  dâ *  *  *  lı   | 
z4 A2B2 G4 e2=f2 e2d2 ^3/4c2ed d8 z4  | 
w:  ta *  *  ze *  ye    | 
z4 ^3/4f8 f4 d2e2 f2g2 a2g2 f3e d4  | \
w:  Râ ha tül *  *  *  er  | 
z4 g4 ^3/4f4 e2=f2 e2d2 ^3/4c2B2 c2cB A4 z4  | 
w:  vâh  *  o *  lur *  *  *  du   | 
z4 A2G2 A4 B4 ^3/4c4 {d}c2B2 A2AG ^3/4F4 B4  | \
w:  baş *  *  la sa  *  *  *  â  | 
z4 A2B2 ^3/4c4 B2A2 A3G G2G^3/4F F8 z4  | 
w:  gâ *  *  ze *  ye    | 
|


